X:1
T:Title
%%score { 1 | ( 2 3 ) }
L:1/8
Q:1/4=100
M:2/4
K:E
V:1 treble nm="Grand Piano"
V:2 bass 
V:3 bass 
V:1
 G3 F | E3 D | EF G[CA] | [B,EG]2 [B,DF]2 | [B,EG]3 [B,EA] | [B,EB]3 [CEA] | [EG]2 [B,E]2 | %7
w: Johann~A.~P.~Schulz *|||||||
 [B,DF]4 | G3 F | E3 D | EF G[CA] | [EG]2 [DF]2 | G3 A | B3 A | G[DF] ED | E4 | [Ec]3 [Ed] | %17
w: ||||||||||
 [Ee]3 [Ec] | BG FE | [EG]2 [DF]2 | B3 G | c3 d | ec BG | [B,DF]4 | G3 F | E3 D | EF G[CA] | %27
w: ||||||||||
 [EG]2 [DF]2 | G3 A | B2 ce | [EG]2 [A,DF]2 |[M:6/4] .[G,E]6 z6 |[M:2/4] [CEA]4 | [B,EG]4 |] %34
w: |||||||
V:2
 [E,B,E]3 [E,A,B,] | [E,G,B,]3 [F,A,B,] | z2 E2 | B,,2 B,,2 | E,3 F, | G,3 A, | B,2 G,E, | B,,4 | %8
 [E,B,E]3 [E,A,B,] | [E,G,B,]3 [F,A,B,] | z2 E2 | [B,,B,]2 [B,,B,]2 | [E,B,E]3 [F,B,E] | %13
 [G,B,E]3 [A,CE] | [B,E][B,,A,] [B,,B,]-[B,,A,B,] | [E,G,B,]4 | [A,,A,]3 [A,,B,] | %17
 [A,,C]3 [A,,A,] | [E,E]-[E,B,E] [C,^A,C]2 | [B,,B,]2 [B,,B,]2 | [G,B,E]3 [G,^B,F] | %21
 [G,CE]3 [G,^B,F] | [A,CE]2[K:bass] [E,E]-[E,B,E] | B,,4 | [E,B,E]3 [E,A,B,] | [E,G,B,]3 [F,A,B,] | %26
 [G,B,][F,D] E-[A,,E] | [B,,B,]2 [B,,B,]2 | [E,B,E]3 [F,B,D] | z2 [A,E]2 | B,2 B,,2 | %31
[M:6/4] .E,6 z6 |[M:2/4] A,,4 | E,4 |] %34
V:3
 x4 | x4 | [G,B,][F,D] [E,B,]A,, | x4 | x4 | x4 | x4 | x4 | x4 | x4 | [G,B,][F,D] [E,B,]A,, | x4 | %12
 x4 | x4 | z2 .G,2 | x4 | x4 | x4 | .G,2 z2 | x4 | x4 | x4 | z2[K:bass] .G,2 | x4 | x4 | x4 | %26
 z2 .[E,B,]2 | x4 | x4 | [G,B,E]2 z C | x4 |[M:6/4] x12 |[M:2/4] x4 | x4 |] %34

